assets/img/braze_icons/lock-02.svg

<svg fill="none" height="24" viewBox="0 0 24 24" width="24" xmlns="http://www.w3.org/2000/svg"><path clip-rule="evenodd" d="m12 2c-3.31371 0-6 2.68629-6 6v2.0271c-.08675.0048-.17067.0105-.25182.0171-.5621.0459-1.07881.1445-1.56414.3918-.75265.3835-1.36457.9954-1.74806 1.748-.2473.4854-.34586 1.0021-.39179 1.5642-.04421.5412-.0442 1.2055-.04419 2.0105v.4826c-.00001.805-.00002 1.4693.04419 2.0105.04593.5621.14449 1.0788.39179 1.5642.38349.7526.99541 1.3645 1.74806 1.748.48533.2473 1.00204.3459 1.56414.3918.5412.0442 1.20556.0442 2.01055.0442h8.48257c.805 0 1.4693 0 2.0105-.0442.5621-.0459 1.0788-.1445 1.5642-.3918.7526-.3835 1.3645-.9954 1.748-1.748.2473-.4854.3459-1.0021.3918-1.5642.0442-.5412.0442-1.2055.0442-2.0105v-.4826c0-.805 0-1.4693-.0442-2.0105-.0459-.5621-.1445-1.0788-.3918-1.5642-.3835-.7526-.9954-1.3645-1.748-1.748-.4854-.2473-1.0021-.3459-1.5642-.3918-.0811-.0066-.165-.0123-.2518-.0171v-2.0271c0-3.31371-2.6863-6-6-6zm4 8v-2c0-2.20914-1.7909-4-4-4-2.20914 0-4 1.79086-4 4v2z" fill="#801ed7" fill-rule="evenodd"/></svg>

<svg width="24" height="24" viewBox="0 0 24 24" fill="none" xmlns="http://www.w3.org/2000/svg">
<path fill-rule="evenodd" clip-rule="evenodd" d="M12 2C8.68629 2 6 4.68629 6 8V10.0271C5.91325 10.0319 5.82933 10.0376 5.74818 10.0442C5.18608 10.0901 4.66937 10.1887 4.18404 10.436C3.43139 10.8195 2.81947 11.4314 2.43598 12.184C2.18868 12.6694 2.09012 13.1861 2.04419 13.7482C1.99998 14.2894 1.99999 14.9537 2 15.7587V16.2413C1.99999 17.0463 1.99998 17.7106 2.04419 18.2518C2.09012 18.8139 2.18868 19.3306 2.43598 19.816C2.81947 20.5686 3.43139 21.1805 4.18404 21.564C4.66937 21.8113 5.18608 21.9099 5.74818 21.9558C6.28938 22 6.95374 22 7.75873 22H16.2413C17.0463 22 17.7106 22 18.2518 21.9558C18.8139 21.9099 19.3306 21.8113 19.816 21.564C20.5686 21.1805 21.1805 20.5686 21.564 19.816C21.8113 19.3306 21.9099 18.8139 21.9558 18.2518C22 17.7106 22 17.0463 22 16.2413V15.7587C22 14.9537 22 14.2894 21.9558 13.7482C21.9099 13.1861 21.8113 12.6694 21.564 12.184C21.1805 11.4314 20.5686 10.8195 19.816 10.436C19.3306 10.1887 18.8139 10.0901 18.2518 10.0442C18.1707 10.0376 18.0868 10.0319 18 10.0271V8C18 4.68629 15.3137 2 12 2ZM16 10V8C16 5.79086 14.2091 4 12 4C9.79086 4 8 5.79086 8 8V10H16Z" fill="#801ED7"/>
</svg>
